packages/core/src/svgs/dnt.svg

<svg width="24" height="24" viewBox="0 0 24 24" fill="none" xmlns="http://www.w3.org/2000/svg">
<g clip-path="url(#clip0_31_9271)">
<path d="M0 0H24V24H0V0Z" fill="#AFF3F9"/>
<path d="M18.7732 10.6279C18.6767 10.1504 18.5056 9.69105 18.2662 9.26678C17.7738 8.42593 16.7002 7.20235 15.3575 6.23893C15.3575 6.23893 14.3435 5.56607 13.8661 5.33678C12.1213 4.51093 10.1675 4.34293 8.49691 5.85664C5.69277 8.41093 4.29091 11.9736 5.69277 15.5209C5.72277 15.5981 6.49848 17.7692 11.1519 19.2221C13.1949 19.2829 14.3881 19.1608 15.7008 18.3808C17.4159 17.3715 18.4153 15.5368 18.7732 13.6708C18.8778 13.1051 18.8923 11.1936 18.7732 10.6279Z" fill="#98F7D2"/>
<path d="M13.2476 5.62356V8.98527L9.65705 9.21413L8.24062 10.9023L7.68262 13.4771L9.19933 15.8806L11.1163 16.7248H13.7199L15.8512 16.3096V6.62127C15.8512 6.62127 14.3452 5.4127 13.3608 5.12256" fill="#AFF3F9"/>
<path d="M17.8483 14.0531C17.3117 14.0231 17.61 13.1509 17.3713 12.1571C17.0876 11.0561 17.5054 10.2915 18.057 10.3219C18.317 10.3642 18.5629 10.4692 18.7731 10.6279C18.6767 10.1504 18.5056 9.69106 18.2661 9.2668C17.7737 8.42594 16.7709 7.20237 15.4286 6.23894V15.3508C15.4286 15.7524 15.0231 16.1745 14.6481 16.2607C14.2329 16.3558 13.8039 16.1329 13.6277 15.7485C13.0975 16.0844 12.486 16.2701 11.8586 16.2859C9.93042 16.3395 8.13942 14.9231 8.14242 12.8269C8.14542 10.7308 9.82671 9.14937 11.754 9.14465C12.3806 9.14294 12.7436 9.2398 13.2853 9.56208V6.02208C13.2827 5.88494 13.3247 5.74865 13.3817 5.62394C13.4382 5.49994 13.5221 5.39044 13.6273 5.3038C11.8821 4.47794 10.167 4.34294 8.49642 5.85665C5.69228 8.41094 4.29042 11.9737 5.69228 15.5209C5.72228 15.5981 5.75228 15.6744 5.78228 15.7352C5.82214 15.6495 5.87785 15.5715 5.946 15.5059C6.67671 14.7414 7.482 16.3014 9.19757 17.2031C10.2861 17.7692 10.9127 18.5188 11.1514 19.2217C12.747 19.4209 14.3876 19.1608 15.7003 18.3808C17.4154 17.3715 18.4149 15.5368 18.7727 13.6708C18.5175 13.9008 18.1909 14.0359 17.8479 14.0535L17.8483 14.0531ZM12.0034 6.80551C12.4063 6.79008 12.7791 7.27951 12.7937 7.5088C12.8087 7.73808 12.4509 7.64637 12.063 7.78394C11.6301 7.93694 11.3173 7.79937 11.3023 7.56965C11.2873 7.34037 11.5843 6.82051 12.0034 6.80551Z" fill="#2F3D86"/>
<path d="M11.1334 13.9903C12.0012 14.4583 13.0491 14.274 13.2432 13.2244C13.3482 12.6145 13.2882 11.6644 12.7195 11.3665C10.8338 10.3453 9.24765 12.9694 11.1334 13.9903Z" fill="#2F3D86"/>
</g>
<defs>
<clipPath id="clip0_31_9271">
<rect width="24" height="24" fill="white"/>
</clipPath>
</defs>
</svg>

<svg xmlns="http://www.w3.org/2000/svg" width="24" height="24" fill="none" viewBox="0 0 24 24"><g clip-path="url(#a)"><path fill="#AFF3F9" d="M0 0h24v24H0z"/><path fill="#98F7D2" d="M18.773 10.628a4.6 4.6 0 0 0-.507-1.361c-.492-.841-1.566-2.065-2.908-3.028 0 0-1.014-.673-1.492-.902-1.745-.826-3.698-.994-5.37.52-2.803 2.554-4.205 6.117-2.803 9.664.03.077.805 2.248 5.459 3.701 2.043.06 3.236-.061 4.549-.841 1.715-1.01 2.714-2.844 3.072-4.71.105-.566.12-2.477 0-3.043"/><path fill="#AFF3F9" d="M13.248 5.624v3.361l-3.59.23-1.417 1.687-.558 2.575 1.516 2.404 1.917.844h2.604l2.131-.415V6.62s-1.506-1.208-2.49-1.498"/><path fill="#2F3D86" d="M17.848 14.053c-.536-.03-.238-.902-.477-1.896-.283-1.1.134-1.866.686-1.835.26.042.506.147.716.306a4.6 4.6 0 0 0-.507-1.361c-.492-.841-1.495-2.065-2.837-3.028v9.112c0 .401-.406.823-.78.91a.91.91 0 0 1-1.021-.512 3.47 3.47 0 0 1-1.77.537c-1.928.053-3.719-1.363-3.716-3.46.003-2.095 1.685-3.677 3.612-3.681.627-.002.99.095 1.531.417v-3.54a.9.9 0 0 1 .097-.398.9.9 0 0 1 .245-.32c-1.745-.826-3.46-.961-5.13.553C5.691 8.41 4.29 11.974 5.691 15.52c.03.077.06.153.09.214a.8.8 0 0 1 .164-.23c.73-.764 1.536.796 3.252 1.698 1.088.566 1.715 1.316 1.953 2.019 1.596.199 3.237-.061 4.55-.841 1.714-1.01 2.714-2.844 3.072-4.71-.256.23-.582.365-.925.383m-5.845-7.247c.403-.016.776.474.79.703.016.23-.342.137-.73.275-.433.153-.746.015-.76-.214-.016-.23.281-.75.7-.764"/><path fill="#2F3D86" d="M11.133 13.99c.868.468 1.916.284 2.11-.766.105-.61.045-1.56-.524-1.857-1.885-1.022-3.471 1.602-1.586 2.623"/></g><defs><clipPath id="a"><path fill="#fff" d="M0 0h24v24H0z"/></clipPath></defs></svg>
